src/pos-icons/cursor-default-gesture-outline.svg

<svg height="24" viewBox="0 0 24 24" width="24" xmlns="http://www.w3.org/2000/svg"><path d="m16.5 10.54 3.87 3.29-1.87.35.79 1.74.93 2.04-.5.23-.91-1.99-.81-1.77-1.5 1.23zm-.91-2.54c-.33 0-.59.27-.59.6v8.97c0 .33.26.6.59.6.15 0 .27-.05.37-.13l1.49-1.21 1.29 2.83c.1.22.31.34.53.34.09 0 .17 0 .26-.06l2.14-1.01c.3-.14.44-.5.28-.79l-1.29-2.84 1.87-.36c.12-.03.24-.09.33-.2.21-.24.18-.62-.09-.85l-6.77-5.76c-.12-.08-.26-.13-.41-.13m-3.09-1.27c.22-.07.67.46 1.09 1.03l1.41-1.05c-.13-.21-.31-.46-.53-.75-.16-.21-.88-1.03-1.81-1.16-.62-.08-1.85.26-2.06 1.81-.13.97.16 1.58.61 2.47.25.52.83 1.88.97 2.7.15.81-.12 1.38-.44 1.34-.3-.04-.54-.47-.71-.71-.14-.19-1.03-1.59-1.36-2.18-.45-.73-1.63-2.27-3.23-2.49-2.09-.28-3 1.46-3.26 2.62l-2.18-.3v1.82l1.93.27c-.18 3.45 1.57 4.67 2.74 4.85 1.25.15 2.41-.72 2.57-1.94.17-1.22-.68-3.56-3.28-4.37.14-.54.25-1.26 1.4-1.1.9.12 1.85 1.67 2.57 2.85.65 1.09 1.17 1.95 1.9 2.28.62.28 1.33.25 1.9-.07.69-.39 1.13-1.1 1.27-2.02.22-1.73-1.3-4.46-1.43-4.79-.17-.38-.45-1.02-.07-1.11m-6 8.05c-.07.33-.4.47-.62.44-.5-.06-1.22-.72-1.17-2.69 1.46.6 1.82 1.82 1.79 2.25z"/></svg>

<?xml version="1.0" encoding="UTF-8"?><!DOCTYPE svg PUBLIC "-//W3C//DTD SVG 1.1//EN" "http://www.w3.org/Graphics/SVG/1.1/DTD/svg11.dtd"><svg xmlns="http://www.w3.org/2000/svg" xmlns:xlink="http://www.w3.org/1999/xlink" version="1.1" id="mdi-cursor-default-gesture-outline" width="24" height="24" viewBox="0 0 24 24"><path d="M16.5 10.54L20.37 13.83L18.5 14.18L19.29 15.92L20.22 17.96L19.72 18.19L18.81 16.2L18 14.43L16.5 15.66V10.54M15.59 8C15.26 8 15 8.27 15 8.6V17.57C15 17.9 15.26 18.17 15.59 18.17C15.74 18.17 15.86 18.12 15.96 18.04L17.45 16.83L18.74 19.66C18.84 19.88 19.05 20 19.27 20C19.36 20 19.44 20 19.53 19.94L21.67 18.93C21.97 18.79 22.11 18.43 21.95 18.14L20.66 15.3L22.53 14.94C22.65 14.91 22.77 14.85 22.86 14.74C23.07 14.5 23.04 14.12 22.77 13.89L16 8.13C15.88 8.05 15.74 8 15.59 8M12.5 6.73C12.72 6.66 13.17 7.19 13.59 7.76L15 6.71C14.87 6.5 14.69 6.25 14.47 5.96C14.31 5.75 13.59 4.93 12.66 4.8C12.04 4.72 10.81 5.06 10.6 6.61C10.47 7.58 10.76 8.19 11.21 9.08C11.46 9.6 12.04 10.96 12.18 11.78C12.33 12.59 12.06 13.16 11.74 13.12C11.44 13.08 11.2 12.65 11.03 12.41C10.89 12.22 10 10.82 9.67 10.23C9.22 9.5 8.04 7.96 6.44 7.74C4.35 7.46 3.44 9.2 3.18 10.36L1 10.06V11.88L2.93 12.15C2.75 15.6 4.5 16.82 5.67 17C6.92 17.15 8.08 16.28 8.24 15.06C8.41 13.84 7.56 11.5 4.96 10.69C5.1 10.15 5.21 9.43 6.36 9.59C7.26 9.71 8.21 11.26 8.93 12.44C9.58 13.53 10.1 14.39 10.83 14.72C11.45 15 12.16 14.97 12.73 14.65C13.42 14.26 13.86 13.55 14 12.63C14.22 10.9 12.7 8.17 12.57 7.84C12.4 7.46 12.12 6.82 12.5 6.73M6.5 14.78C6.43 15.11 6.1 15.25 5.88 15.22C5.38 15.16 4.66 14.5 4.71 12.53C6.17 13.13 6.53 14.35 6.5 14.78Z" /></svg>
